dataset/sioyek/icon.svg

<?xml version="1.0" encoding="UTF-8" standalone="no"?>
<svg
   width="128px"
   height="128px"
   viewBox="0 0 128 128"
   version="1.1"
   id="svg40"
   xml:space="preserve"
   xmlns:xlink="http://www.w3.org/1999/xlink"
   xmlns="http://www.w3.org/2000/svg"
   xmlns:svg="http://www.w3.org/2000/svg"><defs
     id="defs17"><linearGradient
       id="linearGradient45"
       gradientUnits="userSpaceOnUse"
       x1="320"
       y1="116"
       x2="416"
       y2="116"
       gradientTransform="matrix(0.25,0,0,0.25,-39.99999,31.000015)"><stop
         offset="0"
         style="stop-color:#008ecc;stop-opacity:1;"
         id="stop43" /><stop
         offset="0.5"
         style="stop-color:#00b2ff;stop-opacity:1;"
         id="stop44" /><stop
         offset="1"
         style="stop-color:#008ecc;stop-opacity:1;"
         id="stop45" /></linearGradient><linearGradient
       id="linearGradient42"
       gradientUnits="userSpaceOnUse"
       x1="320"
       y1="116"
       x2="416"
       y2="116"
       gradientTransform="matrix(-0.25,0,0,0.25,168.00001,31.000015)"><stop
         offset="0"
         style="stop-color:#cc6a00;stop-opacity:1;"
         id="stop40" /><stop
         offset="0.5"
         style="stop-color:#ff8400;stop-opacity:1;"
         id="stop41" /><stop
         offset="1"
         style="stop-color:#cc6a00;stop-opacity:1;"
         id="stop42" /></linearGradient><linearGradient
       id="linear0"
       gradientUnits="userSpaceOnUse"
       x1="64"
       y1="246"
       x2="120"
       y2="246"
       gradientTransform="translate(0,-166)"><stop
         offset="0"
         style="stop-color:#008ecc;stop-opacity:1;"
         id="stop1" /><stop
         offset="0.85714298"
         style="stop-color:#008ecc;stop-opacity:1;"
         id="stop2" /><stop
         offset="0.92857099"
         style="stop-color:#00b2ff;stop-opacity:1;"
         id="stop3" /><stop
         offset="1"
         style="stop-color:#008ecc;stop-opacity:1;"
         id="stop4" /></linearGradient><linearGradient
       id="linear1"
       gradientUnits="userSpaceOnUse"
       x1="64"
       y1="246"
       x2="120"
       y2="246"
       gradientTransform="matrix(-1,0,0,1,128.00001,-166)"><stop
         offset="0"
         style="stop-color:#cc6a00;stop-opacity:1;"
         id="stop5" /><stop
         offset="0.85714298"
         style="stop-color:#cc6a00;stop-opacity:1;"
         id="stop6" /><stop
         offset="0.92857099"
         style="stop-color:#ff8400;stop-opacity:1;"
         id="stop7" /><stop
         offset="1"
         style="stop-color:#cc6a00;stop-opacity:1;"
         id="stop8" /></linearGradient><clipPath
       id="clip1"><rect
         x="0"
         y="0"
         width="192"
         height="152"
         id="rect9" /></clipPath><g
       id="surface203859"
       clip-path="url(#clip1)"><path
         style=" stroke:none;fill-rule:nonzero;fill:rgb(0%,0%,0%);fill-opacity:1;"
         d="M 128 107.65625 C 127.917969 111.746094 124.621094 115 120.507812 115 L 120.007812 115 L 120.007812 116 L 120.507812 116 C 123.753906 116 126.566406 114.1875 128 111.519531 Z M 96 115 L 120 116 L 120 115 Z M 96 115 "
         id="path9" /><path
         style=" stroke:none;fill-rule:nonzero;fill:rgb(0%,0%,0%);fill-opacity:1;"
         d="M 128 110.65625 C 127.917969 114.746094 124.621094 118 120.507812 118 L 120.007812 118 L 120.007812 119 L 120.507812 119 C 123.730469 119 126.53125 117.210938 127.972656 114.574219 C 127.984375 114.382812 128 114.191406 128 114 Z M 102 118 L 120 119 L 120 118 Z M 102 118 "
         id="path10" /></g><linearGradient
       id="linear2"
       gradientUnits="userSpaceOnUse"
       x1="320"
       y1="116"
       x2="416"
       y2="116"
       gradientTransform="matrix(-0.25,0,0,0.25,168.00001,31.000015)"><stop
         offset="0"
         style="stop-color:#00b2ff;stop-opacity:1;"
         id="stop10" /><stop
         offset="0.5"
         style="stop-color:#66d1ff;stop-opacity:1;"
         id="stop11" /><stop
         offset="1"
         style="stop-color:#00a0e5;stop-opacity:1;"
         id="stop12" /></linearGradient><linearGradient
       id="linear3"
       gradientUnits="userSpaceOnUse"
       x1="320"
       y1="116"
       x2="416"
       y2="116"
       gradientTransform="matrix(0.25,0,0,0.25,-39.99999,31.000015)"><stop
         offset="0"
         style="stop-color:#ff8400;stop-opacity:1;"
         id="stop13" /><stop
         offset="0.5"
         style="stop-color:#ffb566;stop-opacity:1;"
         id="stop14" /><stop
         offset="1"
         style="stop-color:#e57700;stop-opacity:1;"
         id="stop15" /></linearGradient><linearGradient
       xlink:href="#linearGradient42"
       id="linearGradient40"
       gradientUnits="userSpaceOnUse"
       gradientTransform="matrix(-0.25,0,0,0.25,168.00001,33.000015)"
       x1="320"
       y1="116"
       x2="416"
       y2="116" /><linearGradient
       xlink:href="#linearGradient45"
       id="linearGradient43"
       gradientUnits="userSpaceOnUse"
       gradientTransform="matrix(0.25,0,0,0.25,-39.99999,33.000015)"
       x1="320"
       y1="116"
       x2="416"
       y2="116" /><linearGradient
       xlink:href="#linear3"
       id="linearGradient46"
       gradientUnits="userSpaceOnUse"
       gradientTransform="matrix(0.25,0,0,0.25,-39.99999,35.000015)"
       x1="320"
       y1="116"
       x2="416"
       y2="116" /><linearGradient
       xlink:href="#linearGradient45"
       id="linearGradient47"
       gradientUnits="userSpaceOnUse"
       gradientTransform="matrix(0.25,0,0,0.25,-39.99999,37.000015)"
       x1="320"
       y1="116"
       x2="416"
       y2="116" /></defs><path
     style="fill:#000000;fill-opacity:1;fill-rule:nonzero;stroke:none"
     d="M 120,94.355469 V 101 c 0,4.43359 -3.56641,8 -8,8 H 90 c -9.683594,0 -18.023438,5.73828 -21.816406,14 H 59.816406 C 56.023438,114.73828 47.683594,109 38,109 H 16 c -4.433594,0 -8,-3.56641 -8,-8 v -6.644531 z m 0,0"
     id="path17" /><path
     style="fill:url(#linear0);fill-rule:nonzero;stroke:none"
     d="M 66.328125,54.019531 C 66.167969,55.007812 66.054688,56 66,57 h -2 v 63 h 4.183594 C 71.976562,111.73828 80.316406,106 90,106 h 22 c 4.43359,0 8,-3.56641 8,-8 V 62.355469 c 0,-4.433594 -3.56641,-8 -8,-8 z m 0,0"
     id="path18" /><path
     style="fill:url(#linear1);fill-rule:nonzero;stroke:none"
     d="M 61.675781,54.019531 C 61.832031,55.007812 61.945312,56 62,57 h 2 v 63 H 59.816406 C 56.023438,111.73828 47.683594,106 38,106 H 16 c -4.433594,0 -8,-3.56641 -8,-8 V 62.355469 c 0,-4.433594 3.566406,-8 8,-8 z m 0,0"
     id="path19" /><use
     xlink:href="#surface203859"
     transform="translate(-8,-16)"
     mask="none"
     id="use19"
     style="fill:#000000;fill-opacity:1;opacity:0.1" /><path
     style="fill:url(#linearGradient40);fill-rule:nonzero;stroke:none"
     d="m 112,23 c 4.43359,0 8,3.566406 8,8 v 59 c 0,4.433594 -3.56641,8 -8,8 H 88 c -13.253906,0 -24,8.74609 -24,22 V 49 C 64,35.746094 74.746094,23 88,23 Z"
     id="path40" /><path
     style="fill:url(#linear2);fill-rule:nonzero;stroke:none"
     d="m 112,21 c 4.43359,0 8,3.566406 8,8 v 59 c 0,4.433594 -3.56641,8 -8,8 H 88 C 74.746094,96 64,106.74609 64,120 V 47 C 64,33.746094 74.746094,21 88,21 Z m 0,0"
     id="path20" /><path
     style="fill:url(#linearGradient47);fill-rule:nonzero;stroke:none"
     d="m 16,27 c -4.433594,0 -8,3.566406 -8,8 v 59 c 0,4.433594 3.566406,8 8,8 h 24 c 13.253906,0 24,4.74609 24,18 V 53 C 64,39.746094 53.253906,27 40,27 Z"
     id="path46" /><path
     style="fill:url(#linearGradient46);fill-rule:nonzero;stroke:none"
     d="m 16,25 c -4.433594,0 -8,3.566406 -8,8 v 59 c 0,4.433594 3.566406,8 8,8 h 24 c 13.253906,0 24,6.74609 24,20 V 51 C 64,37.746094 53.253906,25 40,25 Z"
     id="path45" /><path
     style="fill:url(#linearGradient43);fill-rule:nonzero;stroke:none"
     d="m 16,23 c -4.433594,0 -8,3.566406 -8,8 v 59 c 0,4.433594 3.566406,8 8,8 h 24 c 13.253906,0 24,8.74609 24,22 V 49 C 64,35.746094 53.253906,23 40,23 Z"
     id="path42" /><path
     style="fill:url(#linear3);fill-rule:nonzero;stroke:none"
     d="m 16,21 c -4.433594,0 -8,3.566406 -8,8 v 59 c 0,4.433594 3.566406,8 8,8 h 24 c 13.253906,0 24,10.74609 24,24 V 47 C 64,33.746094 53.253906,21 40,21 Z m 0,0"
     id="path21" /></svg>

<svg xmlns="http://www.w3.org/2000/svg" xmlns:xlink="http://www.w3.org/1999/xlink" xml:space="preserve" width="128" height="128" viewBox="0 0 128 128"><defs><linearGradient id="c" x1="320" x2="416" y1="116" y2="116" gradientTransform="matrix(.25 0 0 .25 -40 31)" gradientUnits="userSpaceOnUse"><stop offset="0" style="stop-color:#008ecc;stop-opacity:1"/><stop offset=".5" style="stop-color:#00b2ff;stop-opacity:1"/><stop offset="1" style="stop-color:#008ecc;stop-opacity:1"/></linearGradient><linearGradient id="b" x1="320" x2="416" y1="116" y2="116" gradientTransform="matrix(-.25 0 0 .25 168 31)" gradientUnits="userSpaceOnUse"><stop offset="0" style="stop-color:#cc6a00;stop-opacity:1"/><stop offset=".5" style="stop-color:#ff8400;stop-opacity:1"/><stop offset="1" style="stop-color:#cc6a00;stop-opacity:1"/></linearGradient><linearGradient id="e" x1="64" x2="120" y1="246" y2="246" gradientTransform="translate(0 -166)" gradientUnits="userSpaceOnUse"><stop offset="0" style="stop-color:#008ecc;stop-opacity:1"/><stop offset=".857" style="stop-color:#008ecc;stop-opacity:1"/><stop offset=".929" style="stop-color:#00b2ff;stop-opacity:1"/><stop offset="1" style="stop-color:#008ecc;stop-opacity:1"/></linearGradient><linearGradient id="f" x1="64" x2="120" y1="246" y2="246" gradientTransform="matrix(-1 0 0 1 128 -166)" gradientUnits="userSpaceOnUse"><stop offset="0" style="stop-color:#cc6a00;stop-opacity:1"/><stop offset=".857" style="stop-color:#cc6a00;stop-opacity:1"/><stop offset=".929" style="stop-color:#ff8400;stop-opacity:1"/><stop offset="1" style="stop-color:#cc6a00;stop-opacity:1"/></linearGradient><linearGradient id="i" x1="320" x2="416" y1="116" y2="116" gradientTransform="matrix(-.25 0 0 .25 168 31)" gradientUnits="userSpaceOnUse"><stop offset="0" style="stop-color:#00b2ff;stop-opacity:1"/><stop offset=".5" style="stop-color:#66d1ff;stop-opacity:1"/><stop offset="1" style="stop-color:#00a0e5;stop-opacity:1"/></linearGradient><linearGradient id="d" x1="320" x2="416" y1="116" y2="116" gradientTransform="matrix(.25 0 0 .25 -40 31)" gradientUnits="userSpaceOnUse"><stop offset="0" style="stop-color:#ff8400;stop-opacity:1"/><stop offset=".5" style="stop-color:#ffb566;stop-opacity:1"/><stop offset="1" style="stop-color:#e57700;stop-opacity:1"/></linearGradient><linearGradient xlink:href="#b" id="h" x1="320" x2="416" y1="116" y2="116" gradientTransform="matrix(-.25 0 0 .25 168 33)" gradientUnits="userSpaceOnUse"/><linearGradient xlink:href="#c" id="l" x1="320" x2="416" y1="116" y2="116" gradientTransform="matrix(.25 0 0 .25 -40 33)" gradientUnits="userSpaceOnUse"/><linearGradient xlink:href="#d" id="k" x1="320" x2="416" y1="116" y2="116" gradientTransform="matrix(.25 0 0 .25 -40 35)" gradientUnits="userSpaceOnUse"/><linearGradient xlink:href="#c" id="j" x1="320" x2="416" y1="116" y2="116" gradientTransform="matrix(.25 0 0 .25 -40 37)" gradientUnits="userSpaceOnUse"/><clipPath id="a"><path d="M0 0h192v152H0z"/></clipPath><g id="g" clip-path="url(#a)"><path d="M128 107.656a7.465 7.465 0 0 1-7.492 7.344h-.5v1h.5a8.49 8.49 0 0 0 7.492-4.48ZM96 115l24 1v-1Zm0 0" style="stroke:none;fill-rule:nonzero;fill:#000;fill-opacity:1"/><path d="M128 110.656a7.465 7.465 0 0 1-7.492 7.344h-.5v1h.5a8.5 8.5 0 0 0 7.465-4.426c.011-.191.027-.383.027-.574ZM102 118l18 1v-1Zm0 0" style="stroke:none;fill-rule:nonzero;fill:#000;fill-opacity:1"/></g></defs><path d="M120 94.355V101c0 4.434-3.566 8-8 8H90c-9.684 0-18.023 5.738-21.816 14h-8.368c-3.793-8.262-12.132-14-21.816-14H16a7.98 7.98 0 0 1-8-8v-6.645zm0 0" style="fill:#000;fill-opacity:1;fill-rule:nonzero;stroke:none"/><path d="M66.328 54.02c-.16.988-.273 1.98-.328 2.98h-2v63h4.184c3.793-8.262 12.132-14 21.816-14h22c4.434 0 8-3.566 8-8V62.355c0-4.433-3.566-8-8-8zm0 0" style="fill:url(#e);fill-rule:nonzero;stroke:none"/><path d="M61.676 54.02c.156.988.27 1.98.324 2.98h2v63h-4.184c-3.793-8.262-12.132-14-21.816-14H16a7.98 7.98 0 0 1-8-8V62.355c0-4.433 3.566-8 8-8zm0 0" style="fill:url(#f);fill-rule:nonzero;stroke:none"/><use xlink:href="#g" style="fill:#000;fill-opacity:1;opacity:.1" transform="translate(-8 -16)"/><path d="M112 23c4.434 0 8 3.566 8 8v59c0 4.434-3.566 8-8 8H88c-13.254 0-24 8.746-24 22V49c0-13.254 10.746-26 24-26Z" style="fill:url(#h);fill-rule:nonzero;stroke:none"/><path d="M112 21c4.434 0 8 3.566 8 8v59c0 4.434-3.566 8-8 8H88c-13.254 0-24 10.746-24 24V47c0-13.254 10.746-26 24-26Zm0 0" style="fill:url(#i);fill-rule:nonzero;stroke:none"/><path d="M16 27a7.98 7.98 0 0 0-8 8v59c0 4.434 3.566 8 8 8h24c13.254 0 24 4.746 24 18V53c0-13.254-10.746-26-24-26Z" style="fill:url(#j);fill-rule:nonzero;stroke:none"/><path d="M16 25a7.98 7.98 0 0 0-8 8v59c0 4.434 3.566 8 8 8h24c13.254 0 24 6.746 24 20V51c0-13.254-10.746-26-24-26Z" style="fill:url(#k);fill-rule:nonzero;stroke:none"/><path d="M16 23a7.98 7.98 0 0 0-8 8v59c0 4.434 3.566 8 8 8h24c13.254 0 24 8.746 24 22V49c0-13.254-10.746-26-24-26Z" style="fill:url(#l);fill-rule:nonzero;stroke:none"/><path d="M16 21a7.98 7.98 0 0 0-8 8v59c0 4.434 3.566 8 8 8h24c13.254 0 24 10.746 24 24V47c0-13.254-10.746-26-24-26Zm0 0" style="fill:url(#d);fill-rule:nonzero;stroke:none"/></svg>
